X:963
T:The Thief of Lough Erne
N:"Collected by F.O'Neill"
B:O'Neill's 963
Z:Transcribed by Dan G. Petersen, dangp@post6.tele.dk
M:6/8
L:1/8
K:G
(G/A/)|GED DCD|Adc B2A|GEE EGE|GEE E2A|
GED DCD|Adc B2A|BGG G2A|BGG G2:|
A|BGG dGG|BGG dGG|AFF cFF|AFA c2A|
[1 BGG dGG|BGG dGG|Bdc B2A|BGG G2:|
[2 BGG AFF|GEE d2c|(B<d)c B2A|BGG G2|]


